X: 210
T: Lafferty's
T:Rattigan's
T:Glen of Aherlow
C:Sean Ryan
R:reel
M:4/4
K:Edor
"Bm"B2 AF "(D)"BFAF |"Em" ~E3 F EDB,D |"Bm" B2 AF "(D)"BFAF | "D"DFAF "Em"FE E2 |
"Bm"B2 AF "(D)"BFAF |"Em" ~E3 F EDB,A, | B, ~E3 "D"DEFA | dBAF "Em"FE E2 :|
"Em"eB (3BBB egfe | "D"d2 fd Adfd |"Em" eB (3BBB egfe |"D" dBAF "Em"FE E2 |
"Em"eB (3BBB egfe |"D" d2 fd Adfd |"Bm" ~B3 d "Em"egfe |"D" dBAF "Em"FE E2 :|


